X: 39877
T: This Is My Love, Do You Like Her?
R: jig
M: 6/8
K: Adorian
|:ABA AGA|c3 d3|ege ede|g3 a2g|
e2f gfe|dBd G2A|B2d dcB|A3 A3:|
|:a2a age|a3 b2a|g2e ede|g3 a2g|
e2f gfe|d2d G2A|B2d dcB|A3 A3:|

